svgs/sharp-thin/franc-sign.svg

<svg xmlns="http://www.w3.org/2000/svg" viewBox="0 0 320 512"><!--! Font Awesome Pro 6.6.0 by @fontawesome - https://fontawesome.com License - https://fontawesome.com/license (Commercial License) Copyright 2024 Fonticons, Inc. --><path d="M72 32l-8 0 0 8 0 168 0 16 0 112L0 336l0 16 64 0 0 120 0 8 16 0 0-8 0-120 144 0 0-16L80 336l0-112 208 0 0-16L80 208 80 48l232 0 8 0 0-16-8 0L72 32z"/></svg>

<svg xmlns="http://www.w3.org/2000/svg" viewBox="0 0 320 512"><!--! Font Awesome Pro 6.5.2 by @fontawesome - https://fontawesome.com License - https://fontawesome.com/license (Commercial License) Copyright 2024 Fonticons, Inc. --><path d="M72 32H64v8V208v16V336H0v16H64V472v8H80v-8V352H224V336H80V224H288V208H80V48H312h8V32h-8H72z"/></svg>
